!!!OTL: 132. Freylekhs
!!!Genre:	Freylekhs
!!!Mode:	Minor
!!!Listening/dance:	dance
!!!One_Mode:	no
**kern
*I"P1
*clefG2
*k[b-e-]
*g:
*M2/4
*>A
*>bM
*B-:
=1
!LO:TX:a:i:t=Bb-major
8ddL
8ff
8ee-T
8ddJ
=2
8ddL
8ff
8ee-T
8ddJ
=3
8ddL
8ff
8ee-T
8ddJ
=4
8ddL
16ee-L
16ddJJ
8ccL
8b-J
=5
4dd
4ee-
=6
4ff
16gg-XLL
16ffJ
8eenJ
=7
2ff
=8
2bb-
=9
8ddL
8ff
8ee-T
8ddJ
=10
8ddL
8ff
8ee-T
8ddJ
=11
8ddL
8ff
8ee-
8ddJ
=12
8ddL
16ee-L
16ddJJ
8ccL
8b-J
*>eM
*g:
!LO:TX:a:i:t=G-minor
=13
8b-
(8qdd/
4cc)
8b-
=14
(16ddLL
16ccJ)
8b-'J
(16b-LL
16aJ)
8g'J
=15
2g
=16
4g
4r
=17:|!|:
*>B
4.gg
8ff
=18
4bb-
12aa-XL
12gg
12aa-J
=19
2gg
=20
2g
=21
4.gg
8ff
=22
4bb-
12aa-XL
12gg
12aa-J
=23
2gg
=24
2gg
=25
8.ffL
(16ggJk
8.aa-XL)
(16ffJk
=26
8.ggL)
(16ee-Jk
8.ffL)
(16ddJk
=27
8.ee-L)
(16ccJk
8.ddL)
(16b-Jk
=28
4.cc)
8b-
=29
8b-
(8qdd/
4cc)
8b-
=30
(16ddLL
16ccJ)
8b-J
(16b-LL
16aJ)
8gJ
=31
2g
=32
2gg
=:|!
*-
